!!!COA:	Josquin des Prez
!!!CDT:	~1450-1521/08/27
!!!COM: Michele Presenti
!!!OTL@@LAT: Tulerunt Dominum
!!!OTL2@@LAT:	Scio enim
!!!AGN:	Motet
!!!SCT:	NJE 20.14
!!!SCA:	New Josquin Edition 20.14
!!!voices:	4
**kern	**kern	**kern	**kern
*staff4	*staff3	*staff2	*staff1
*Ivox	*Ivox	*Ivox	*Ivox
*I"Bassus	*I"Tenor	*I"Altus	*I"Superius
*I'B	*I'T	*I'A	*I'S
*clefF4	*clefGv2	*clefGv2	*clefG2
*>A	*>A	*>A	*>A
*k[]	*k[]	*k[]	*k[]
*M2/1	*M2/1	*M2/1	*M2/1
*met(C|)	*met(C|)	*met(C|)	*met(C|)
=1-	=1-	=1-	=1-
0r	0r	0r	0e
=2	=2	=2	=2
0r	0r	0r	0f
=3	=3	=3	=3
0r	0r	0r	0e
=4	=4	=4	=4
0E	0r	0e	0g
=5	=5	=5	=5
0F	0r	1c	0a
.	.	1d	.
=6	=6	=6	=6
0E	0r	1.e	0g
.	.	4d\	.
.	.	4c\	.
=7	=7	=7	=7
0G	0E	0B	1r
.	.	.	1g
=8	=8	=8	=8
0A	0F	1r	1c
.	.	1A	1d
=9	=9	=9	=9
1B	0E	2.G/	0e
.	.	4A/	.
[1G	.	2.B\	.
.	.	4A/	.
=10	=10	=10	=10
2G\]	0G	4B\	1d
.	.	4c\	.
2F\	.	1d	.
1E	.	.	[1g
.	.	2c\	.
=11	=11	=11	=11
0D	0A	0d	2g/]
.	.	.	4f/
.	.	.	4e/
.	.	.	1f
=12	=12	=12	=12
1E	0G	1B	1g
1C	.	[1e	1cc
=13	=13	=13	=13
1G	0r	2e\]	1b
.	.	2d\	.
1A	.	1c	[1a
=14	=14	=14	=14
0E	0r	0B	2a/]
.	.	.	4g#i/
.	.	.	4f#i/
.	.	.	1g#i
=15	=15	=15	=15
1F	0A	1r	0a
1A	.	1c	.
=16	=16	=16	=16
1G	0B	1d	1r
1E	.	1e	1g
=17	=17	=17	=17
1r	1c	1A	1cc
1G	[1d	1B	1b
=18	=18	=18	=18
1F	1d]	2c\	1a
.	.	2A/	.
1E	[1e	[1B	1b
=19	=19	=19	=19
0F	2e\]	2B\]	0a
.	4d\	4A/	.
.	4c\	4G/	.
.	1d	1A	.
=20	=20	=20	=20
[0E	[0G	1B	0g
.	.	1c	.
=21	=21	=21	=21
0E]	0G]	1B	1r
.	.	2r	1g
.	.	2B\	.
=22	=22	=22	=22
0AA	0r	2A/	1a
.	.	1c	.
.	.	.	2e/
.	.	2A/	[2f/
=23	=23	=23	=23
0r	0r	2B\	2f/]
.	.	2.c\	1e
.	.	4B\	.
.	.	[2A/	4d/
.	.	.	4c/
=24	=24	=24	=24
1E	0r	2A/]	1B
.	.	2G#i/	.
2.F\	.	1A	2A/
.	.	.	[2c/
4G\	.	.	.
=25	=25	=25	=25
2A\	0r	0r	2c/]
2.G\	.	.	2d/
.	.	.	1e
4F\	.	.	.
[2E\	.	.	.
=26	=26	=26	=26
2E\]	0r	0r	1f
2D\	.	.	.
2E\	.	.	1e
[2C/	.	.	.
=27	=27	=27	=27
4C/]	0r	1.E	1.g
4D\	.	.	.
4E\	.	.	.
4F\	.	.	.
2G\	.	.	.
2D\	.	2F/	[2a/
=28	=28	=28	=28
1E	0r	1G	4a/]
.	.	.	4g/
.	.	.	1e
1F	.	1A	.
.	.	.	2d/
=29	=29	=29	=29
1.G	1.E	[0B	[0e
2F\	2F/	.	.
=30	=30	=30	=30
1E	1G	1B]	0e]
1AA	[1A	1c	.
=31	=31	=31	=31
0E	1A]	0B	1r
.	1G#i	.	1b
=32	=32	=32	=32
1r	0A	0e	1.cc
[1AA	.	.	.
.	.	.	2b\
=33	=33	=33	=33
2AA/]	0c	1e	0a
2BB/	.	.	.
2C/	.	1e	.
2D\	.	.	.
=34	=34	=34	=34
1E	1B	1e	1g
1F	1A	2r	1a
.	.	2c\	.
=35	=35	=35	=35
0G	0d	2B\	0b
.	.	2.d\	.
.	.	4c\	.
.	.	2B\	.
=36	=36	=36	=36
1A	1c	1A	0r
1B	1d	2G/	.
.	.	2B\	.
=37	=37	=37	=37
1c	1.e	1A	1r
[1C	.	[1G	[1e
.	2d\	.	.
=38	=38	=38	=38
2C/]	1c	1G]	2e/]
2D\	.	.	2f/
1E	1B	1G	1g
=39	=39	=39	=39
0AA	1A	2.c\	2a/
.	.	.	1cc
.	.	4d\	.
.	[1c	[1e	.
.	.	.	4b\
.	.	.	4a/
=40	=40	=40	=40
0E	2c\]	0e]	2.g/
.	2B\	.	.
.	.	.	4a/
.	[1B	.	2b\
.	.	.	2g/
=41	=41	=41	=41
0F	1B]	1c	1a
.	1A	1d	1a
=42	=42	=42	=42
[0E;l	1B	[0e;l	[0g;l
.	1c	.	.
=43	=43	=43	=43
0E]	0B;	0e]	0g]
=44	=44	=44	=44
1.AA	[0A	[0E	1.c
2BB/	.	.	2d/
=45	=45	=45	=45
1C	0A_	1E]	1e
[1D	.	[1F	[1d
=46	=46	=46	=46
2D\]	0A]	1F]	2d/]
2AA/	.	.	2c/
1C	.	1E	[1e
=47	=47	=47	=47
!	!LP:N:vis=00.	!	!
0D	[0A;l	0F	2e/]
.	.	.	4d/
.	.	.	4c/
.	.	.	1d
=48	=48	=48	=48
0AA;l	0A]	0E;l	0e;l
=49	=49	=49	=49
0GG	0D	[0G	0B
=50	=50	=50	=50
1C	0E	1G]	0c
1AA	.	1A	.
=51	=51	=51	=51
1GG	1.G	1D	1B
[1C	.	1E	[1e
.	2A/	.	.
=52	=52	=52	=52
2C/]	1G	2C/	2e/]
2BB/	.	2D/	2d/
1AA	[1A	[1E	1c
=53	=53	=53	=53
0BB	2A/]	2E/]	0d
.	4G/	4D/	.
.	4F/	4C/	.
.	1G	1D	.
=54	=54	=54	=54
1AA	1A	1E	1c
1GG	1B	[1G	1d
=55	=55	=55	=55
0C	1G	2G/]	0e
.	.	2.E/	.
.	[1c	.	.
.	.	4F/	.
.	.	[2G/	.
=56	=56	=56	=56
0D	2c\]	2G/]	0f
.	4B\	4F/	.
.	4A/	4E/	.
.	1B	1F	.
=57	=57	=57	=57
1C	[0c	1G	1e
[1F	.	[1A	[1a
=58	=58	=58	=58
2F\]	1c]	1A]	2a/]
2E\	.	.	2g/
1D	1d	1A	1f
=59	=59	=59	=59
1.E	1B	1e	1.g
.	[1e	[1B	.
2F\	.	.	2a/
=60	=60	=60	=60
1G	2e\]	1B]	2.b\
.	2d\	.	.
.	.	.	4a/
1A	1c	[1e	[1a
=61	=61	=61	=61
0E	0B	1e]	2a/]
.	.	.	4g#i/
.	.	.	4f#i/
.	.	1e	1g#i
=62	=62	=62	=62
1.F	[0A	2.c\	0a
.	.	4B\	.
.	.	2A/	.
2E\	.	2G/	.
=63	=63	=63	=63
1D	0A]	1F	1r
2C/	.	2E/	[1a
[2D\	.	[2F/	.
=64	=64	=64	=64
1D]	1r	2F/]	2a/]
.	.	4E/	2b\
.	.	4D/	.
1C	[1E	2E/	1cc
.	.	[2A/	.
=65	=65	=65	=65
0BB	2E/]	2A/]	0dd
.	4D/	4G#i/	.
.	4C/	4F#i/	.
.	1D	1G#i	.
=66	=66	=66	=66
0AA	0E	1.A	1cc
.	.	.	2a/
.	.	2B\	[2cc\
=67	=67	=67	=67
0r	1A	1c	4cc\]
.	.	.	4b\
.	.	.	4a/
.	.	.	4g/
.	1F	[1d	1a
=68	=68	=68	=68
0r	1G	2d\]	1b
.	.	2e\	.
.	1A	1c	[1e
=69	=69	=69	=69
0r	0E	0B	2e/]
.	.	.	2f/
.	.	.	1g
=70	=70	=70	=70
1r	1.F	0A	1a
1D	.	.	1f
.	2G/	.	.
=71	=71	=71	=71
1AA	1A	0r	2e/
.	.	.	2.c/
1C	1G	.	.
.	.	.	4d/
.	.	.	[2e/
=72	=72	=72	=72
0D	0F	0A	2e/]
.	.	.	4d/
.	.	.	4c/
.	.	.	1d
=73	=73	=73	=73
0AA	0E	0A	1e
.	.	.	1c
=74	=74	=74	=74
0D	0F	0A	1.d
.	.	.	2A/
=75	=75	=75	=75
1AA	[0E	1A	1c
1GG	.	1B-i	[1d
=76	=76	=76	=76
0AA	0E]	0A	2d/]
.	.	.	4c#i/
.	.	.	4B/
.	.	.	1c#i
=77	=77	=77	=77
1r	0D	1.F	0d
[1F	.	.	.
.	.	2D/	.
=78	=78	=78	=78
2F\]	1r	1d	1r
2E\	.	.	.
[1D	[1A	[1d	[1f
=79	=79	=79	=79
0D]	2A/]	2d\]	2f/]
.	2G/	2c\	2e/
.	1F	[1A	1d
=80	=80	=80	=80
0AA	0E	1A]	0c
.	.	[1A	.
=81	=81	=81	=81
1D	1F	2A/]	1d
.	.	2B\	.
1C	1G	1c	[1e
=82	=82	=82	=82
0D	0F	0A	2e/]
.	.	.	4d/
.	.	.	4c/
.	.	.	1d
=83	=83	=83	=83
0E	0G	2.G/	1r
.	.	4A/	.
.	.	[1B	[1e
=84	=84	=84	=84
0F	0A	2B\]	1e]
.	.	4A/	.
.	.	4G/	.
.	.	1A	1d
=85	=85	=85	=85
[0El	1B	1G	[0el
.	1c	1A	.
=86	=86	=86	=86
0E_	1B	1G	0e_
.	1A	1c	.
=87	=87	=87	=87
0E]	0Gl	0Bl	0e]
!!LO:LB:i:g=z
=88||	=88||	=88||	=88||
*>B	*>B	*>B	*>B
!!section: Secunda pars: Scio enim
!!!OMD: Secunda pars: Scio enim
*k[]	*k[]	*k[]	*k[]
*M2/1	*M2/1	*M2/1	*M2/1
*met(C|)	*met(C|)	*met(C|)	*met(C|)
[0E	[0B	[0G	[0e
=89	=89	=89	=89
1E]	1B]	1G]	0e]
[1AA	[1c	[1A	.
=90	=90	=90	=90
2AA/]	0c]	0A]	0e
2BB/	.	.	.
2C/	.	.	.
2D\	.	.	.
=91	=91	=91	=91
1E	1B	1.G	0e
1C	2c\	.	.
.	[2A/	[2E/	.
=92	=92	=92	=92
0BB	2A/]	2E/]	0d
.	4G#i/	4D/	.
.	4F#i/	4C/	.
.	1G#i	1D	.
=93	=93	=93	=93
[0AA;l	[0A;l	1E	[0c;l
.	.	1F	.
=94	=94	=94	=94
0AA]	0A]	0E;	0c]
=95	=95	=95	=95
0C	1G	1E	0e
.	[1E	1G	.
=96	=96	=96	=96
1AA	1E]	1A	1c
1D	1F	1B	1d
=97	=97	=97	=97
1.C	[0G	0c	1.e
4BB/	.	.	4d/
4AA/	.	.	4c/
=98	=98	=98	=98
0GG	0G]	[0d	0B
=99	=99	=99	=99
0BB	0G	0d]	1r
.	.	.	1b
=100	=100	=100	=100
0AA	1.A	2.c\	1.cc
.	.	4B\	.
.	.	2A/	.
.	2B\	2G/	2b\
=101	=101	=101	=101
1A	2c\	1F	1a
.	2d\	.	.
1B	[1e	1E	[1g
=102	=102	=102	=102
1c	1e]	2.C/	2g/]
.	.	.	2e/
.	.	4D/	.
1C	[1c	4E/	1e
.	.	4F/	.
.	.	[2G/	.
=103	=103	=103	=103
0D	2c\]	2G/]	0f
.	4B\	4F/	.
.	4A/	4E/	.
.	1B	1F	.
=104	=104	=104	=104
1.C	1c	[0G	1e
.	2r	.	1c
4BB/	2c\	.	.
4AA/	.	.	.
=105	=105	=105	=105
1GG	2.B\	1G]	2.d/
.	4c\	.	4e/
2r	2d\	1r	2f/
[2C/	[2c\	.	[2e/
=106	=106	=106	=106
2C/]	2c\]	0r	2e/]
2D\	4B\	.	4d/
.	4A/	.	4c/
1E	1G	.	1B
=107	=107	=107	=107
1F	0A	1.c	1r
1A	.	.	1cc
.	.	4B\	.
.	.	4c\	.
=108	=108	=108	=108
1G	0r	2d\	1b
.	.	1e	.
1F	.	.	1a
.	.	2d\	.
=109	=109	=109	=109
2E\	0r	2e\	2g/
1A	.	1c	2.a/
.	.	.	4b\
4G\	.	4B\	[2cc\
4F\	.	4A/	.
=110	=110	=110	=110
1E	0r	1G	2cc\]
.	.	.	1b
1F	.	1A	.
.	.	.	[2a/
=111	=111	=111	=111
0E	0r	0B	2a/]
.	.	.	4g#i/
.	.	.	4f#i/
.	.	.	1g#i
=112	=112	=112	=112
0AA	1r	0A	[0a
.	1E	.	.
=113	=113	=113	=113
1r	1F	1r	0a]
1AA	2E/	1E	.
.	[2A/	.	.
=114	=114	=114	=114
1D	2A/]	1F	0r
.	2B\	.	.
1AA	1c	2E/	.
.	.	[2A/	.
=115	=115	=115	=115
0E	1B	2A/]	0r
.	.	4G/	.
.	.	4F/	.
.	[1e	4G/	.
.	.	4A/	.
.	.	[2B\	.
=116	=116	=116	=116
0F	2e\]	2B\]	0r
.	4d\	4A/	.
.	4c\	4G/	.
.	1d	1A	.
=117	=117	=117	=117
[0E	1G	1B	0r
.	1A	2r	.
.	.	[2c\	.
=118	=118	=118	=118
1E]	1G	2c\]	0r
.	.	2B\	.
1AA	1c	1A	.
=119	=119	=119	=119
1.E	1B	1G	0r
.	1e	2r	.
2F\	.	[2c\	.
=120	=120	=120	=120
1G	1d	2c\]	0r
.	.	1B	.
1A	1c	.	.
.	.	[2A/	.
=121	=121	=121	=121
0E	0B	2A/]	0e
.	.	4G#i/	.
.	.	4F#i/	.
.	.	1G#i	.
=122	=122	=122	=122
1r	0c	0A	1.e
1A	.	.	.
.	.	.	4d/
.	.	.	4c/
=123	=123	=123	=123
1.G	0B	0r	1d
.	.	.	[1g
2F\	.	.	.
=124	=124	=124	=124
2E\	1r	0r	2g/]
2D\	.	.	2f/
2C/	[1c	.	2e/
2BB/	.	.	2d/
=125	=125	=125	=125
1AA	2c\]	1r	1c
.	2A/	.	.
[1GG	1B	[1D	1d
=126	=126	=126	=126
2GG/]	0G	1D]	1r
2AA/	.	.	.
1BB	.	1D	1d
=127	=127	=127	=127
[0AA	1.A	0E	1c
.	.	.	[1A
.	2B\	.	.
=128	=128	=128	=128
0AA]	2c\	1.A	2A/]
.	2d\	.	2B/
.	1e	.	2c/
.	.	4G/	2d/
.	.	4F/	.
=129	=129	=129	=129
0r	1c	1E	1e
.	1d	1D	1f
=130	=130	=130	=130
0r	2B\	1E	1g
.	1c	.	.
.	.	1F	1a
.	4B\	.	.
.	4A/	.	.
=131	=131	=131	=131
0r	1G	1E	1b
.	[1A	2r	1cc
.	.	[2e\	.
=132	=132	=132	=132
0r	1A]	2e\]	1c
.	.	4d\	.
.	.	4c\	.
.	1G	2B\	2d/
.	.	[2c\	[2e/
=133	=133	=133	=133
1r	0F	4c\]	2e/]
.	.	4B\	.
.	.	4A/	4d/
.	.	4G/	4c/
1A	.	1A	1d
=134	=134	=134	=134
1B	0E	1G	[0e
[1G	.	1E	.
=135	=135	=135	=135
2G\]	1r	0B	0e_
2F\	.	.	.
1E	1G	.	.
=136	=136	=136	=136
0AA	1A	1c	0e_
.	1c	[1A	.
=137	=137	=137	=137
0E	0B	2A/]	0e]
.	.	4G#i/	.
.	.	4F#i/	.
.	.	1G#i	.
=138	=138	=138	=138
1F	1A	1A	0r
1E	[1B	1G	.
=139	=139	=139	=139
0F	2B\]	0A	0r
.	2A/	.	.
.	[1A	.	.
=140	=140	=140	=140
0E	1A]	0B	0r
.	1G#i	.	.
=141	=141	=141	=141
0AA	0A	1.c	0e
.	.	2B\	.
=142	=142	=142	=142
1AA	1c	1A	0e
1C	1c	[1G	.
=143	=143	=143	=143
1GG	1B	1G]	1d
1AA	[1A	1E	1c
=144	=144	=144	=144
0E	2A/]	1r	0B
.	4G/	.	.
.	4F/	.	.
.	1G	1B	.
=145	=145	=145	=145
0AA	1E	1c	1A
.	1F	1A	1c
=146	=146	=146	=146
1GG	1G	1d	1B
1C	1E	[1G	[1c
=147	=147	=147	=147
0GG	0D	1G]	2c/]
.	.	.	4B/
.	.	.	4A/
.	.	1G	1B
=148	=148	=148	=148
1G	[0C	1.E	0c
2G\	.	.	.
[2A\	.	[2F/	.
=149	=149	=149	=149
2A\]	0C]	2F/]	1r
4G\	.	4E/	.
4F\	.	4D/	.
[1E	.	1C	1g
=150	=150	=150	=150
2E\]	0r	2r	2g/
1F	.	1c	1a
4E\	.	2d\	4g/
4D\	.	.	4f/
=151	=151	=151	=151
2C/	0r	2e\	2g/
1D	.	2d\	1f
.	.	1A	.
4C/	.	.	4e/
4BB/	.	.	4d/
=152	=152	=152	=152
2AA/	0r	2A/	2c/
2GG/	.	2B\	2d/
2.C/	.	1A	2e/
.	.	.	2c/
4D\	.	.	.
=153	=153	=153	=153
1E	0r	1G	1B
1AA	.	1A	1A
=154	=154	=154	=154
0C	0r	0G	0e
=155	=155	=155	=155
1C	0r	1G	1e
1C	.	1G	1e
=156	=156	=156	=156
1C	0r	1c	1g
1C	.	1c	1g
=157	=157	=157	=157
1AA	1c	0e	1a
1AA	1c	.	1a
=158	=158	=158	=158
1E	1B	1e	1g
1C	[1e	1r	[1cc
=159	=159	=159	=159
1G	2e\]	0r	2cc\]
.	2d\	.	2b\
1A	1c	.	[1a
=160	=160	=160	=160
0E	0B	0r	2a/]
.	.	.	4g#i/
.	.	.	4f#i/
.	.	.	1g#i
=161	=161	=161	=161
0A	1.c	0e	[0a
.	4B\	.	.
.	4c\	.	.
=162	=162	=162	=162
0r	1d	1.f	0a]
.	1c	.	.
.	.	2e\	.
=163	=163	=163	=163
0r	4B\	1d	0r
.	4A/	.	.
.	4G/	.	.
.	4F/	.	.
.	2E/	1c	.
.	[2A/	.	.
=164	=164	=164	=164
0r	2A/]	2r	0r
.	2G/	1d	.
.	2F/	.	.
.	2E/	[2e\	.
=165	=165	=165	=165
0r	1F	2e\]	0r
.	.	4d\	.
.	.	4c\	.
.	1F	2.d\	.
.	.	4c\	.
=166	=166	=166	=166
0r	1E	2e\	0r
.	.	2B\	.
.	2r	2.c\	.
.	[2e\	.	.
.	.	4B\	.
=167	=167	=167	=167
0r	2e\]	4A/	0r
.	.	4G/	.
.	2.f\	2.A/	.
.	4e\	4G/	.
.	[2e\	4F/	.
.	.	4E/	.
=168	=168	=168	=168
0r	2e\]	1F	0r
.	2d\	.	.
.	1e	1E	.
=169	=169	=169	=169
0AA	0c	0e	0a
=170	=170	=170	=170
1AA	1c	1e	1a
1AA	1c	1e	1a
=171	=171	=171	=171
0E	1B	2e\	0g
.	.	4d\	.
.	.	4c\	.
.	2G/	2B\	.
.	[2B\	[2e\	.
=172	=172	=172	=172
0F	2B\]	2e\]	0a
.	4A/	4d\	.
.	4G/	4c\	.
.	1A	1d	.
=173	=173	=173	=173
0E	0B	[0e	0g
=174	=174	=174	=174
1r	0c	0e]	1.a
[1A	.	.	.
.	.	.	2b\
=175	=175	=175	=175
2A\]	1A	1r	1cc
4G\	.	.	.
4F\	.	.	.
1G	1B	1d	1b
=176	=176	=176	=176
2E\	1c	2e\	2g/
1F	.	2.A/	1a
.	1A	.	.
.	.	4B\	.
4E\	.	2c\	2f/
4D\	.	.	.
=177	=177	=177	=177
2E\	1G	2B\	2g/
1C	.	2.c\	1e
.	1A	.	.
.	.	4B\	.
[2D\	.	2A/	[2f/
=178	=178	=178	=178
2D\]	1r	2F/	2f/]
4C/	.	2G/	4e/
4BB/	.	.	4d/
2AA/	1A	2.A/	2c/
2D\	.	.	2f/
.	.	4B\	.
=179	=179	=179	=179
2AA/	1A	2c\	2e/
2.D\	.	2.d\	2.f/
.	2A/	.	.
4C/	.	4e\	4e/
[2F\	[2A/	4f\	[2c/
.	.	4g\	.
=180	=180	=180	=180
4F\]	4A/]	2a\	4c/]
4E\	4G/	.	4d/
4D\	4F/	1A	1e
4C/	4E/	.	.
1D	1F	.	.
.	.	2A/	2d/
=181	=181	=181	=181
0AAl	0El	0Al	0el
!!LO:LB:i:g=z
=182||	=182||	=182||	=182||
*>C	*>C	*>C	*>C
*k[]	*k[]	*k[]	*k[]
*M2/1	*M2/1	*M2/1	*M2/1
*met(C|)	*met(C|)	*met(C|)	*met(C|)
!!section: Tertia pars
!!!OMD: Tertia pars
1A	0r	0A	0r
1F	.	.	.
=183	=183	=183	=183
1G	0r	1B	0r
2A\	.	1c	.
[2F\	.	.	.
=184	=184	=184	=184
2F\]	0r	1A	0r
2E\	.	.	.
2D\	.	[1d	.
4C/	.	.	.
4BB/	.	.	.
=185	=185	=185	=185
1AA	0r	2d\]	0A
.	.	4c\	.
.	.	4B\	.
2r	.	1c	.
2AA/	.	.	.
=186	=186	=186	=186
2GG/	0r	1d	1B
2BB/	.	.	.
1AA	.	1e	1c
=187	=187	=187	=187
0D	0r	0f	1A
.	.	.	[1d
=188	=188	=188	=188
0AA	0A	0e	2d/]
.	.	.	4c/
.	.	.	4B/
.	.	.	1c
=189	=189	=189	=189
1r	1B	1d	1d
1AA	1c	1c	1e
=190	=190	=190	=190
0D	1A	1d	0f
.	[1d	1A	.
=191	=191	=191	=191
0AA	2d\]	0A	0e
.	4c#i\	.	.
.	4B\	.	.
.	1c#i	.	.
=192	=192	=192	=192
1D	1d	1A	1r
1C	1e	[1c	1g
=193	=193	=193	=193
1F	0f	1c]	1.a
1D	.	1d	.
.	.	.	2b\
=194	=194	=194	=194
[0E	0e	1B	[0g
.	.	1c	.
=195	=195	=195	=195
0E]	1r	2B\	0g]
.	.	2G/	.
.	1e	2B\	.
.	.	2c\	.
=196	=196	=196	=196
1D	1f	1d	1a
1C	1e	2.G/	1cc
.	.	4A/	.
=197	=197	=197	=197
1G	1d	1B	1b
1A	1c	1e	1cc
=198	=198	=198	=198
1B	1.g	1d	1dd
1c	.	2r	[1ee
.	2f\	[2c\	.
=199	=199	=199	=199
1C	1e	4c\]	1ee]
.	.	4d\	.
.	.	2e\	.
1D	2d\	1f	[1a
.	2c\	.	.
=200	=200	=200	=200
0E	0B	0e	2a/]
.	.	.	4g#i/
.	.	.	4f#i/
.	.	.	1g#i
=201	=201	=201	=201
0AA	[0A	1r	0a
.	.	1E	.
=202	=202	=202	=202
1D	0A]	1F	1r
1C	.	1E	1e
=203	=203	=203	=203
1D	1r	1D	1f
2AA/	1A	1C	1e
2C/	.	.	.
=204	=204	=204	=204
1GG	1B-	1G	1d
1AA	1A	[1E	1c
=205	=205	=205	=205
1C	1G	1E]	1r
1D	1F	[1A	[1d
=206	=206	=206	=206
0AA	0E	0A]	2d/]
.	.	.	4c#i/
.	.	.	4B/
.	.	.	1c#i
=207	=207	=207	=207
1D	1r	1.D	0d
1GG	1G	.	.
.	.	2E/	.
=208	=208	=208	=208
0D	1A	0F	1r
.	1B	.	1d
=209	=209	=209	=209
1C	1c	1G	1e
[1D	[1A	[1d	[1f
=210	=210	=210	=210
2D\]	2A/]	2d\]	2f/]
2E\	2G/	2B\	2e/
1C	1E	1c	[1e
=211	=211	=211	=211
0D	0F	0A	2e/]
.	.	.	4d/
.	.	.	4c/
.	.	.	1d
=212	=212	=212	=212
0E	0G	2.G/	1r
.	.	4A/	.
.	.	[1B	[1e
=213	=213	=213	=213
0F	0A	2B\]	1e]
.	.	4A/	.
.	.	4G/	.
.	.	1A	1d
=214	=214	=214	=214
[0El	1B	1G	[0el
.	1c	1A	.
=215	=215	=215	=215
0E_	1B	1G	0e_
.	1A	1c	.
=216	=216	=216	=216
0E]	0Gl	0Bl	0e]
==	==	==	==
*-	*-	*-	*-
!!!RDF**kern: l=long note in original notation
!!!RDF**kern: i=editorial accidental
!!!RDF**kern: V=start of tuplet marker
!!!RDF**kern: Z=end of tuplet marker
!!!ENC:	Joel Chapman 2012/1/23
!!!END:	2012/01/23/
!!!EED:	Jesse Rodin
!!!EEV:	2012/02/02/
!!attribution-level@Jos: 5 (doubtful)
!!!ONB:	Translated from MusicXML and edited on 2012/02/02/ by Craig Sapp
!!muse2ps: u^(2) @{OTL2}^C^@{COA}?\n@{SCT}^i2I150v95,95,95,150Q16
